X: 0
T: Three Kings In Great Glory
Z: Martin Shaw
Z: Copyright © 2004 Douglas D. Anderson
Z: Released To The Public Domain
L: 1/4
M: 3/4
Q: 1/4=115
V: P1 name="Staff"
%%MIDI program 1 19
K: F
[V: P1] "^Solo" C | F F G | A A G | A F d | c2"^Chorus" G | A F d | c2"^Solo" (c/ d/) | _e d c | B c d | c B A | G2"^Chorus" d | c B A | G2"^Solo" G/ A/ | B A G | F G A | G E D | C2"^Chorus" A | G E D =E2"^Solo" C | F F G | A c B | A B G | F2"^Chorus" B | A B G | F2|]
w: Three kings in great glo- ry of hor- ses and men, Of hor- ses and men, In_ haste come a rid- ing o'er moun- tain and fen, O'er moun- tain and fen; For their King is a- wait ing, and lo they would bring, And lo they would bring, The best of their trea- sure to give to their King, To give to their King.

